!!!COM: Corelli, Arcangelo
!!!OTL: 
!!!ONM: Opus 6, No. 11
!!!OMV: 4
!!!CDT: 1653/2/17/-1713/1/8/
!!!OCY: Italia
**kern	**kern	**kern	**kern	**kern	**kern	**kern
*clefC	*clefG	*clefG	*clefG	*clefC	*clefG	*clefG
*k[b-]	*k[b-]	*k[b-]	*k[b-]	*k[b-]	*k[b-]	*k[b-]
*d:	*d:	*d:	*d:	*d:	*d:	*d:
*M4/4	*M4/4	*M4/4	*M4/4	*M4/4	*M4/4	*M4/4
=1	=1	=1	=1	=1	=1	=1
8D	8f#	4r	4.dd	8D	4r	4.dd
8E	8g	.	.	8E	.	.
8F#	8a	2aa	.	8F#	2aa	.
8D	8f#	.	8cc	8D	.	8cc
8G	4d	.	2b-	8G	.	2b-
8A	.	.	.	8A	.	.
8B-	4d	[4gg	.	8B-	[4gg	.
8c	.	.	.	8c	.	.
=2	=2	=2	=2	=2	=2	=2
8d	4.d	4gg]	8a	8d	4gg]	8a
8D	.	.	8d	8D	.	8d
8F	.	4ff	2dd	8F	4ff	2dd
8D	8a	.	.	8D	.	.
8G	4b-	2ee-	.	8G	2ee-	.
8G	.	.	.	8G	.	.
8A	4f	.	[4cc	8A	.	[4cc
8F	.	.	.	8F	.	.
=3	=3	=3	=3	=3	=3	=3
8B-	4f	4.dd	8cc]	8B-	4.dd	8cc]
8c	.	.	8f	8c	.	8f
8d	4.f	.	4.b-	8d	.	4.b-
8B-	.	8ff	.	8B-	8ff	.
8e-	.	4.gg	.	8e-	4.gg	.
8d	8f	.	8b-	8d	.	8b-
8c	8e-	.	[4ee-	8c	.	[4ee-
8B-	8d	8gg	.	8B-	8gg	.
=4	=4	=4	=4	=4	=4	=4
8A	4c	8ff	8ee-]	8A	8ff	8ee-]
8F	.	8a	8ff	8F	8a	8ff
8B-	8d	2b-	8dd	8B-	2b-	8dd
8E-	8g	.	8cc	8E-	.	8cc
8F	4f	.	4dd	8F	.	4dd
8E-	.	.	.	8E-	.	.
8F	4f	4a	4cc	8F	4a	4cc
8FF	.	.	.	8FF	.	.
=5	=5	=5	=5	=5	=5	=5
8B-	4f	4b-	4b-	8B-	4b-	4b-
8A	.	.	.	8A	.	.
8G	8r	4r	2dd	8G	4r	2dd
8F	8a	.	.	8F	.	.
8G	4b-	[2ee	.	8G	[2ee	.
8E	.	.	.	8E	.	.
8A	4a	.	4cc#	8A	.	4cc#
8AA	.	.	.	8AA	.	.
=6	=6	=6	=6	=6	=6	=6
8D	4a	8ee]	[2ff	8D	8ee]	[2ff
8E	.	8a	.	8E	8a	.
8F	4r	8dd	.	8F	8dd	.
8D	.	8cc	.	8D	8cc	.
8G	8d	8b	8ff]	8G	8b	8ff]
8C	16e-	4cc	8ee-	8C	4cc	8ee-
.	16f	.	.	.	.	.
8G	8.g	.	8.dd	8G	.	8.dd
8GG	.	8b	.	8GG	8b	.
.	16g	.	32cc	.	.	32cc
.	.	.	32dd	.	.	32dd
=7	=7	=7	=7	=7	=7	=7
8C	4g	4.cc	8ee-	8C	4.cc	8ee-
8D	.	.	8cc	8D	.	8cc
8E-	4r	.	4.ee-	8E-	.	4.ee-
8C	.	8b-	.	8C	8b-	.
8F	8c	8a	.	8F	8a	.
8BB-	16d	4b-	8dd	8BB-	4b-	8dd
.	16e-	.	.	.	.	.
8F	8.f	.	8.cc	8F	.	8.cc
8FF	.	8a	.	8FF	8a	.
.	16f	.	32b-	.	.	32b-
.	.	.	32cc	.	.	32cc
=8	=8	=8	=8	=8	=8	=8
8BB-	4f	4.b-	8dd	8BB-	4.b-	8dd
8C	.	.	8b-	8C	.	8b-
8D	4r	.	4.bb-	8D	.	4.bb-
8E	.	8dd	.	8E	8dd	.
4.F	4.f	4.cc	.	4.F	4.cc	.
.	.	.	16aa	.	.	16aa
.	.	.	16gg	.	.	16gg
.	.	.	[4aa	.	.	[4aa
8F#	8d	16b-	.	8F#	16b-	.
.	.	16a	.	.	16a	.
=9	=9	=9	=9	=9	=9	=9
8G	4.d	4.b-	8aa]	8G	4.b-	8aa]
8A	.	.	8dd	8A	.	8dd
8B-	.	.	8gg	8B-	.	8gg
8G	8g	8dd	8ff	8G	8dd	8ff
8C	4.g	8cc	8ee-	8C	8cc	8ee-
8D	.	8b-	8dd	8D	8b-	8dd
8E-	.	8a	8cc	8E-	8a	8cc
8C	8ee-	8g	8b-	8C	8g	8b-
=10	=10	=10	=10	=10	=10	=10
8D	4a	4f#	8a	8D	4f#	8a
8d	.	.	8dd	8d	.	8dd
8B-	8r	8r	4.gg	8B-	8r	4.gg
8G	8B-	8dd	.	8G	8dd	.
8c	4e-	4.aa	.	8c	4.aa	.
8A	.	.	8dd	8A	.	8dd
8F#	4d	.	[4aa	8F#	.	[4aa
8D	.	8dd	.	8D	8dd	.
=11	=11	=11	=11	=11	=11	=11
8G	4d	4.bb-	8aa]	8G	4.bb-	8aa]
8A	.	.	8dd	8A	.	8dd
8B-	4.dd	.	4.gg	8B-	.	4gg
8G	.	8dd	.	8G	8dd	.
8c	.	4.ee-	.	8c	4.ee-	8gg
8B-	8dd	.	8g	8B-	.	8g
8A	8cc	.	[4cc	8A	.	[4cc
8G	8b-	8ee-	.	8G	8ee-	.
=12	=12	=12	=12	=12	=12	=12
8F#	4a	8dd	4cc]	8F#	8dd	4cc]
8D	.	8f#	.	8D	8f#	.
8G	8g	2g	8b-	8G	2g	8b-
8C	8e-	.	8a	8C	.	8a
8D	4d	.	4b-	8D	.	4b-
8C	.	.	.	8C	.	.
8D	4d	4f#	4a	8D	4f#	4a
8DD	.	.	.	8DD	.	.
=13	=13	=13	=13	=13	=13	=13
8GG	4d	8g	4g	8GG	8g	4g
8c	.	8ee-	.	8c	8ee-	.
8B	8r	8dd	8r	8B	8dd	8r
8c	8c	8g	8ee-	8c	8g	8ee-
8B	4g	8r	8dd	8B	8r	8dd
8c	.	8ee-	8g	8c	8ee-	8g
8B	8r	8dd	8r	8B	8dd	8r
8c	8c	8g	8ee-	8c	8g	8ee-
=14	=14	=14	=14	=14	=14	=14
8B	4g	8r	8dd	8B	8r	8dd
8c	.	8ee-	8g	8c	8ee-	8g
8B	8r	8dd	8r	8B	8dd	8r
8G	8g	8g	16gg	8G	8g	16gg
.	.	.	16dd	.	.	16dd
4C	4g	8r	4ee-	4C	8r	4ee-
.	.	8g	.	.	8g	.
4D	8r	8f#	[4dd	4D	8f#	[4dd
.	8d	8d	.	.	8d	.
=15	=15	=15	=15	=15	=15	=15
2E-	4B-	2g	4dd]	2E-	2g	4dd]
.	4e-	.	4cc	.	.	4cc
2D	2A	2f#	2dd	2D	2f#	2dd
==	==	==	==	==	==	==
*-	*-	*-	*-	*-	*-	*-
!!!RWG: This file only contains pitch and duration data.
!!!RWG: Transposing instruments are not transposed.
!!!RWG: Durations of rests and tied notes may be interpreted.
!!!RWG: Key is interpreted using the Humdrum key tool.
!!!SCA: 
!!!YOR: Chrysander Edition
!!!AGN: concerto grosso
!!!AFT: stage1
!!!ENC: F. Bennion
!!!END: 1997/04/15
!!!AST: baroque
!!!YEC: Copyright 1994, Center for Computer Assisted Research in the Humanities
!!!YEM: Rights to all derivative electronic formats reserved.
!!!YEM: Refer to licensing agreement for further details.
!!!YEN: United States of America
!!!EED: W.B. Hewlett
!!!KEY: 3079899918
!!!EMD: Converted from MuseData to Humdrum Aug 2, 1999, by Bret Aarden using muse2kern.
!!!VTS: 269801356
